images/NYELA.svg

<svg height="250" viewBox="0 0 250 250" width="250" xmlns="http://www.w3.org/2000/svg" xmlns:xlink="http://www.w3.org/1999/xlink"><linearGradient id="a" gradientUnits="userSpaceOnUse" x1="250.000384" x2="0" y1="0" y2="242.187872"><stop offset="0" stop-color="#f2dde7"/><stop offset="1" stop-color="#cd5c8c"/></linearGradient><clipPath id="b"><path d="m61.796875 57h126.339844v146.125h-126.339844zm0 0"/></clipPath><clipPath id="c"><path d="m103 46.875h76v36.125h-76zm0 0"/></clipPath><path d="m0 0h250v250h-250z" fill="url(#a)"/><path d="m0 0h250v250h-250z" fill-opacity=".2"/><g clip-path="url(#b)"><path d="m98.015625 151.164062c.757813-2.453124 1.492187-4.789062 2.195313-7.15625 2.253906-7.488281 4.167968-15.039062 5.574218-22.726562 1.605469-8.816406 2.339844-17.6875 2.03125-26.671875-.253906-7.347656-2.480468-14.050781-6.085937-20.332031-1.914063-3.378906-3.96875-6.675782-6.136719-9.914063-1.101562-1.632812-1.382812-3.152343-.507812-4.898437.28125-.59375.507812-1.214844.816406-1.945313 1.546875.507813 3.097656.902344 4.5625 1.492188 11.039062 4.421875 20.21875 11.292969 27.542968 20.730469 6.617188 8.53125 11.800782 17.882812 16.25 27.625 3.324219 7.269531 6.222657 14.730468 8.84375 22.277343.085938.253907.195313.535157.335938.957031.3125-.335937.535156-.617187.789062-.898437 2.171876-2.28125 4.5625-4.308594 7.378907-5.800781 6.140625-3.269532 12.253906-2.453125 17.292969 2.308594 3.378906 3.210937 5.605468 7.152343 7.042968 11.519531 4.136719 12.53125 2.335938 24.191406-5.605468 34.722656-4.394532 5.832031-10.363282 9.351563-17.6875 10.308594-5.464844.703125-10.730469-.226563-15.660157-2.617188-10.589843-5.097656-17.574219-13.265625-20.386719-24.757812-1.410156-5.746094-1.015624-11.433594 1.773438-16.785157 3.238281-6.195312 9.433594-9.351562 16.332031-8.363281 1.832031.253907 3.605469.730469 5.4375 1.097657-.027343-.113282-.058593-.28125-.113281-.449219-3.632812-10.730469-7.6875-21.292969-12.953125-31.347657-3.632813-6.929687-7.914063-13.433593-12.984375-19.433593-2.84375-3.378907-6.394531-5.492188-10.421875-7.039063-2.5625-.984375-5.152344-1.972656-7.742187-2.957031-.113282-.027344-.199219-.058594-.425782-.113281.339844.789062.621094 1.519531.929688 2.195312 2.28125 5.042969 3.519531 10.367188 4.199218 15.828125 1.011719 8.195313.730469 16.390625-.253906 24.558594-1.550781 12.644531-4.675781 24.898437-8.421875 37.035156-.253906.816407-.507812 1.660157-.789062 2.589844.589843-.082031 1.097656-.167969 1.632812-.222656 3.804688-.5625 7.578125-.707031 11.292969.421875 5.832031 1.773437 9.070312 5.859375 10.054688 11.742187.929687 5.492188-.054688 10.789063-2.140626 15.828125-4.703124 11.433594-13.011718 18.957032-24.980468 22.109375-11.574219 3.070313-22.867188-1.605469-29.515625-11.914062-3.378907-5.238281-5.152344-11.011719-5.601563-17.207031-.453125-6.535157.644532-12.757813 3.6875-18.585938 1.886719-3.605469 4.421875-6.675781 7.773438-9.015625 7.574218-5.292969 16.363281-4.167969 22.390625 2.847656.730469.984375 1.433593 1.914063 2.253906 2.957031zm83.925781-1.664062c-.113281-.929688-.167968-2.25-.394531-3.519531-.703125-3.6875-2.054687-7.097657-4.789063-9.828125-.929687-.929688-1.96875-1.664063-3.238281-2.027344-.621093-.199219-1.183593-.03125-1.578125.449219-.394531.449219-.222656.929687.085938 1.351562 1.71875 2.367188 2.675781 5.097657 3.433594 7.886719 2.140624 7.605469 1.609374 14.953125-1.886719 22.078125-.027344.085937-.109375.171875-.109375.253906 0 .171875-.03125.421875.054687.507813.113281.085937.367188.085937.507813.027344.335937-.195313.648437-.449219.929687-.730469 4.703125-4.339844 6.757813-9.800781 6.984375-16.449219zm-65.285156 23.601562c-.054688-.675781-.054688-1.238281-.109375-1.800781-.199219-1.4375-.566406-2.816406-1.410156-4-.394531-.5625-.984375-.816406-1.660157-.621093-.621093.199218-.675781.761718-.703124 1.324218-.03125.507813-.03125 1.042969-.113282 1.550782-.367187 2.929687-1.382812 5.6875-2.5625 8.363281-2.929687 6.5625-7.578125 11.492187-13.972656 14.785156-.222656.113281-.363281.421875-.53125.621094.25.113281.53125.28125.785156.28125.875-.058594 1.746094-.113281 2.59375-.28125 4.109375-.761719 7.6875-2.648438 10.730469-5.492188 4.28125-4.027343 6.589844-8.984375 6.953125-14.730469zm0 0" fill="#fff"/></g><g clip-path="url(#c)"><path d="m157.890625 69.320312c-1.101563-.648437-2.199219-1.351562-3.324219-1.945312-5.097656-2.730469-10.449218-4.84375-15.855468-6.84375-9.773438-3.660156-19.742188-6.785156-29.796876-9.601562-.113281-.027344-.199218-.054688-.453124-.140626.253906-.140624.425781-.226562.566406-.28125 7.6875-2.621093 15.574218-4.027343 23.710937-3.519531 12.898438.785157 24.25 5.292969 33.601563 14.445313 4.167968 4.085937 7.769531 8.648437 11.347656 13.238281.253906.335937.507812.675781.789062 1.070313-1.71875.675781-3.351562 1.324218-5.011718 1.96875-4.027344 1.578124-8.113282 3.042968-12.394532 3.886718-6.871093 1.355469-13.515624.566406-19.996093-2.027344-5.347657-2.140624-10.136719-5.238281-14.757813-8.617187-5.039062-3.71875-9.941406-7.601563-15.402344-10.730469-2.199218-1.265625-4.480468-2.335937-6.734374-3.519531-.335938-.167969-.671876-.308594-.984376-.535156 18.644532 2.703125 36.78125 7.378906 54.695313 13.152343zm0 0" fill="#fff"/></g></svg>

<svg xmlns="http://www.w3.org/2000/svg" xmlns:xlink="http://www.w3.org/1999/xlink" width="250px" height="250px" viewBox="0 0 250 250" version="1.1">
<defs>
<linearGradient id="linear0" gradientUnits="userSpaceOnUse" x1="1024" y1="0" x2="0.000000119209" y2="992" gradientTransform="matrix(0.244141,0,0,0.244141,0,0)">
<stop offset="0" style="stop-color:rgb(94.901961%,86.666667%,90.588236%);stop-opacity:1;"/>
<stop offset="1" style="stop-color:rgb(80.392158%,36.078432%,54.901963%);stop-opacity:1;"/>
</linearGradient>
<clipPath id="clip1">
  <path d="M 61.796875 57 L 188.136719 57 L 188.136719 203.125 L 61.796875 203.125 Z M 61.796875 57 "/>
</clipPath>
<clipPath id="clip2">
  <path d="M 103 46.875 L 179 46.875 L 179 83 L 103 83 Z M 103 46.875 "/>
</clipPath>
</defs>
<g id="surface1">
<rect x="0" y="0" width="250" height="250" style="fill:url(#linear0);stroke:none;"/>
<rect x="0" y="0" width="250" height="250" style="fill:rgb(0%,0%,0%);fill-opacity:0.2;stroke:none;"/>
<g clip-path="url(#clip1)" clip-rule="nonzero">
<path style=" stroke:none;fill-rule:nonzero;fill:rgb(100%,100%,100%);fill-opacity:1;" d="M 98.015625 151.164062 C 98.773438 148.710938 99.507812 146.375 100.210938 144.007812 C 102.464844 136.519531 104.378906 128.96875 105.785156 121.28125 C 107.390625 112.464844 108.125 103.59375 107.816406 94.609375 C 107.5625 87.261719 105.335938 80.558594 101.730469 74.277344 C 99.816406 70.898438 97.761719 67.601562 95.59375 64.363281 C 94.492188 62.730469 94.210938 61.210938 95.085938 59.464844 C 95.367188 58.871094 95.59375 58.25 95.902344 57.519531 C 97.449219 58.027344 99 58.421875 100.464844 59.011719 C 111.503906 63.433594 120.683594 70.304688 128.007812 79.742188 C 134.625 88.273438 139.808594 97.625 144.257812 107.367188 C 147.582031 114.636719 150.480469 122.097656 153.101562 129.644531 C 153.1875 129.898438 153.296875 130.179688 153.4375 130.601562 C 153.75 130.265625 153.972656 129.984375 154.226562 129.703125 C 156.398438 127.421875 158.789062 125.394531 161.605469 123.902344 C 167.746094 120.632812 173.859375 121.449219 178.898438 126.210938 C 182.277344 129.421875 184.503906 133.363281 185.941406 137.730469 C 190.078125 150.261719 188.277344 161.921875 180.335938 172.453125 C 175.941406 178.285156 169.972656 181.804688 162.648438 182.761719 C 157.183594 183.464844 151.917969 182.535156 146.988281 180.144531 C 136.398438 175.046875 129.414062 166.878906 126.601562 155.386719 C 125.191406 149.640625 125.585938 143.953125 128.375 138.601562 C 131.613281 132.40625 137.808594 129.25 144.707031 130.238281 C 146.539062 130.492188 148.3125 130.96875 150.144531 131.335938 C 150.117188 131.222656 150.085938 131.054688 150.03125 130.886719 C 146.398438 120.15625 142.34375 109.59375 137.078125 99.539062 C 133.445312 92.609375 129.164062 86.105469 124.09375 80.105469 C 121.25 76.726562 117.699219 74.613281 113.671875 73.066406 C 111.109375 72.082031 108.519531 71.09375 105.929688 70.109375 C 105.816406 70.082031 105.730469 70.050781 105.503906 69.996094 C 105.84375 70.785156 106.125 71.515625 106.433594 72.191406 C 108.714844 77.234375 109.953125 82.558594 110.632812 88.019531 C 111.644531 96.214844 111.363281 104.410156 110.378906 112.578125 C 108.828125 125.222656 105.703125 137.476562 101.957031 149.613281 C 101.703125 150.429688 101.449219 151.273438 101.167969 152.203125 C 101.757812 152.121094 102.265625 152.035156 102.800781 151.980469 C 106.605469 151.417969 110.378906 151.273438 114.09375 152.402344 C 119.925781 154.175781 123.164062 158.261719 124.148438 164.144531 C 125.078125 169.636719 124.09375 174.933594 122.007812 179.972656 C 117.304688 191.40625 108.996094 198.929688 97.027344 202.082031 C 85.453125 205.152344 74.160156 200.476562 67.511719 190.167969 C 64.132812 184.929688 62.359375 179.15625 61.910156 172.960938 C 61.457031 166.425781 62.554688 160.203125 65.597656 154.375 C 67.484375 150.769531 70.019531 147.699219 73.371094 145.359375 C 80.945312 140.066406 89.734375 141.191406 95.761719 148.207031 C 96.492188 149.191406 97.195312 150.121094 98.015625 151.164062 Z M 181.941406 149.5 C 181.828125 148.570312 181.773438 147.25 181.546875 145.980469 C 180.84375 142.292969 179.492188 138.882812 176.757812 136.152344 C 175.828125 135.222656 174.789062 134.488281 173.519531 134.125 C 172.898438 133.925781 172.335938 134.09375 171.941406 134.574219 C 171.546875 135.023438 171.71875 135.503906 172.027344 135.925781 C 173.746094 138.292969 174.703125 141.023438 175.460938 143.8125 C 177.601562 151.417969 177.070312 158.765625 173.574219 165.890625 C 173.546875 165.976562 173.464844 166.0625 173.464844 166.144531 C 173.464844 166.316406 173.433594 166.566406 173.519531 166.652344 C 173.632812 166.738281 173.886719 166.738281 174.027344 166.679688 C 174.363281 166.484375 174.675781 166.230469 174.957031 165.949219 C 179.660156 161.609375 181.714844 156.148438 181.941406 149.5 Z M 116.65625 173.101562 C 116.601562 172.425781 116.601562 171.863281 116.546875 171.300781 C 116.347656 169.863281 115.980469 168.484375 115.136719 167.300781 C 114.742188 166.738281 114.152344 166.484375 113.476562 166.679688 C 112.855469 166.878906 112.800781 167.441406 112.773438 168.003906 C 112.742188 168.511719 112.742188 169.046875 112.660156 169.554688 C 112.292969 172.484375 111.277344 175.242188 110.097656 177.917969 C 107.167969 184.480469 102.519531 189.410156 96.125 192.703125 C 95.902344 192.816406 95.761719 193.125 95.59375 193.324219 C 95.84375 193.4375 96.125 193.605469 96.378906 193.605469 C 97.253906 193.546875 98.125 193.492188 98.972656 193.324219 C 103.082031 192.5625 106.660156 190.675781 109.703125 187.832031 C 113.984375 183.804688 116.292969 178.847656 116.65625 173.101562 Z M 116.65625 173.101562 "/>
</g>
<g clip-path="url(#clip2)" clip-rule="nonzero">
<path style=" stroke:none;fill-rule:nonzero;fill:rgb(100%,100%,100%);fill-opacity:1;" d="M 157.890625 69.320312 C 156.789062 68.671875 155.691406 67.96875 154.566406 67.375 C 149.46875 64.644531 144.117188 62.53125 138.710938 60.53125 C 128.9375 56.871094 118.96875 53.746094 108.914062 50.929688 C 108.800781 50.902344 108.714844 50.875 108.460938 50.789062 C 108.714844 50.648438 108.886719 50.5625 109.027344 50.507812 C 116.714844 47.886719 124.601562 46.480469 132.738281 46.988281 C 145.636719 47.773438 156.988281 52.28125 166.339844 61.433594 C 170.507812 65.519531 174.109375 70.082031 177.6875 74.671875 C 177.941406 75.007812 178.195312 75.347656 178.476562 75.742188 C 176.757812 76.417969 175.125 77.066406 173.464844 77.710938 C 169.4375 79.289062 165.351562 80.753906 161.070312 81.597656 C 154.199219 82.953125 147.554688 82.164062 141.074219 79.570312 C 135.726562 77.429688 130.9375 74.332031 126.316406 70.953125 C 121.277344 67.234375 116.375 63.351562 110.914062 60.222656 C 108.714844 58.957031 106.433594 57.886719 104.179688 56.703125 C 103.84375 56.535156 103.507812 56.394531 103.195312 56.167969 C 121.839844 58.871094 139.976562 63.546875 157.890625 69.320312 Z M 157.890625 69.320312 "/>
</g>
</g>
</svg>
